2 Export/Icons/Brands/Medium.svg

<svg xmlns="http://www.w3.org/2000/svg" xmlns:xlink="http://www.w3.org/1999/xlink" width="24" height="24" viewBox="0 0 24 24">
  <defs>
    <path id="medium-a" d="M3,3 L3,21 L21,21 L21,3 L3,3 Z M17.9535,7.2645 L16.98825,8.19 C16.904796,8.25351614 16.8634834,8.3580977 16.881,8.4615 L16.881,15.26175 C16.8637789,15.3649052 16.9050605,15.4691196 16.98825,15.5325 L17.931,16.458 L17.931,16.66125 L13.1895,16.66125 L13.1895,16.45875 L14.166,15.51 C14.262,15.414 14.262,15.38625 14.262,15.24 L14.262,9.7425 L11.547,16.63875 L11.1795,16.63875 L8.0175,9.7425 L8.0175,14.36475 C7.9911417,14.5589654 8.05558585,14.7545105 8.19225,14.895 L9.46275,16.4355 L9.46275,16.63875 L5.86125,16.63875 L5.86125,16.43625 L7.1325,14.895 C7.26817059,14.7542774 7.32886455,14.5574396 7.296,14.36475 L7.296,9.02025 C7.31118496,8.87175922 7.25462714,8.72493175 7.14375,8.625 L6.01425,7.2645 L6.01425,7.062 L9.51975,7.062 L12.2295,13.00425 L14.6115,7.06125 L17.9535,7.06125 L17.9535,7.2645 L17.9535,7.2645 Z"/>
  </defs>
  <g fill="none" fill-rule="evenodd">
    <polygon points="0 0 24 0 24 24 0 24"/>
    <mask id="medium-b" fill="#fff">
      <use xlink:href="#medium-a"/>
    </mask>
    <use fill="#000" xlink:href="#medium-a"/>
    <g fill="#000" mask="url(#medium-b)">
      <rect width="24" height="24"/>
    </g>
  </g>
</svg>

<svg xmlns="http://www.w3.org/2000/svg" xmlns:xlink="http://www.w3.org/1999/xlink" width="24" height="24" viewBox="0 0 24 24">
  <defs>
    <path id="medium-a" d="M3 3v18h18V3H3zm14.953 4.264l-.965.926a.282.282 0 0 0-.107.271v6.8a.282.282 0 0 0 .107.272l.943.925v.203h-4.742v-.202l.977-.949c.096-.096.096-.124.096-.27V9.742l-2.715 6.897h-.367L8.018 9.743v4.622a.638.638 0 0 0 .174.53l1.27 1.54v.204h-3.6v-.203l1.27-1.541a.615.615 0 0 0 .164-.53V9.02a.468.468 0 0 0-.152-.395l-1.13-1.36v-.203H9.52l2.71 5.942 2.381-5.943h3.342v.204z"/>
  </defs>
  <g fill="none" fill-rule="evenodd">
    <polygon points="0 0 24 0 24 24 0 24"/>
    <mask id="medium-b" fill="#fff">
      <use xlink:href="#medium-a"/>
    </mask>
    <use fill="#000" xlink:href="#medium-a"/>
    <g fill="#000" mask="url(#medium-b)">
      <rect width="24" height="24"/>
    </g>
  </g>
</svg>
